icons/jsmap.svg

<svg width="16" height="16" viewBox="0 0 16 16" fill="none" xmlns="http://www.w3.org/2000/svg">
<path d="M12.0012 2.00004C11.6572 1.99819 11.3165 2.06685 11.001 2.20164C10.6855 2.33642 10.402 2.53436 10.1688 2.78281C9.73429 3.23133 9.49444 3.82826 9.5 4.44732C9.49111 4.49189 9.49111 4.53772 9.5 4.58228C9.58045 5.05783 9.74808 5.51511 9.99475 5.93189C10.5786 7.00586 11.2496 8.03188 12.0012 9C12.0012 9 14.4933 5.80593 14.4933 4.44732C14.4933 3.79826 14.2308 3.17579 13.7634 2.71683C13.2961 2.25787 12.6622 2.00004 12.0012 2.00004ZM12.0012 5.67097C11.7544 5.67275 11.5126 5.6025 11.3065 5.46914C11.1004 5.33577 10.9393 5.14529 10.8435 4.92186C10.7478 4.69843 10.7218 4.45212 10.7689 4.21417C10.8159 3.97621 10.9339 3.75734 11.1078 3.58531C11.2816 3.41328 11.5036 3.29584 11.7456 3.24789C11.9876 3.19994 12.2386 3.22365 12.4668 3.31599C12.695 3.40833 12.8902 3.56516 13.0275 3.76658C13.1648 3.968 13.2381 4.20493 13.2381 4.44732C13.2393 4.60759 13.2082 4.76651 13.1466 4.91491C13.085 5.06332 12.9941 5.19829 12.8791 5.31203C12.7641 5.42578 12.6274 5.51605 12.4767 5.57766C12.326 5.63926 12.1644 5.67097 12.0012 5.67097Z" fill="#F15A24"/>
<path d="M9.75135 7.77891C9.75337 7.8958 9.79917 8.0079 9.88006 8.09391L10.0272 8.2109C9.93522 8.06691 9.84329 7.93191 9.75135 7.77891ZM5.95439 10.6319C6.04164 10.6376 6.12901 10.6225 6.20905 10.5881C6.28909 10.5536 6.35943 10.5007 6.41407 10.4339C6.52947 10.2673 6.5845 10.0677 6.57037 9.86687V6.26694H7.62763V9.86687C7.62952 10.1779 7.56042 10.4854 7.42537 10.7669C7.29708 11.0199 7.09141 11.2275 6.83698 11.3608C6.55234 11.5022 6.23673 11.5732 5.91762 11.5678C5.60001 11.5792 5.28439 11.5143 4.99826 11.3788C4.7501 11.2596 4.5402 11.076 4.39148 10.8479L5.21891 10.2899C5.30355 10.3948 5.411 10.4799 5.53346 10.539C5.65591 10.5982 5.79028 10.6299 5.92681 10.6319M8.95151 3.027L2.92051 3.054C2.67668 3.054 2.44284 3.14882 2.27042 3.3176C2.09801 3.48638 2.00115 3.71529 2.00115 3.95398V12.0538C1.99491 12.1758 2.01408 12.2976 2.05748 12.4121C2.10089 12.5265 2.16762 12.6311 2.25362 12.7195C2.33962 12.8079 2.44309 12.8783 2.55773 12.9263C2.67238 12.9743 2.79581 12.999 2.92051 12.9988H13.0335C13.162 13.0053 13.2904 12.9853 13.4105 12.9401C13.5307 12.8949 13.6397 12.8255 13.7307 12.7364C13.8217 12.6473 13.8926 12.5405 13.9388 12.423C13.9849 12.3054 14.0054 12.1796 13.9988 12.0538V7.91391C13.4931 8.74189 12.9139 9.47088 12.6381 9.80387L12.5738 9.89387V9.97487C12.5873 10.2915 12.5041 10.6048 12.3347 10.8749C12.1621 11.1248 11.9149 11.3165 11.6268 11.4238C11.2725 11.5584 10.8944 11.6226 10.5144 11.6128C10.2608 11.6131 10.008 11.5859 9.76054 11.5318C9.51938 11.4885 9.28466 11.416 9.06183 11.3158C8.85267 11.2227 8.65775 11.1015 8.48263 10.9559L8.95151 10.1369C9.16901 10.3059 9.41472 10.4368 9.6778 10.5239C9.94713 10.6138 10.2298 10.6594 10.5144 10.6589C10.782 10.673 11.0485 10.6171 11.2867 10.4969C11.3859 10.4396 11.4659 10.3551 11.5165 10.2539L11.1855 9.80387L10.8914 9.42588L10.6155 9.37188H10.496C10.1836 9.33118 9.87584 9.26188 9.57667 9.16489C9.34166 9.07572 9.13753 8.92272 8.98828 8.72389C8.80458 8.45973 8.71714 8.14269 8.74005 7.82391C8.72376 7.50824 8.80377 7.19496 8.96989 6.92393C9.0207 6.84646 9.07921 6.77411 9.14457 6.70793C9.14457 6.70793 9.14457 6.61793 9.07102 6.58193C8.80113 6.08331 8.61489 5.54546 8.51941 4.98896C8.5084 4.89026 8.5084 4.79067 8.51941 4.69197C8.52007 4.09849 8.67849 3.51539 8.97909 3" fill="#FBB03B"/>
</svg>

<svg xmlns="http://www.w3.org/2000/svg" width="16" height="16" fill="none"><path fill="#F15A24" d="M12.001 2a2.512 2.512 0 0 0-1 .202 2.474 2.474 0 0 0-.832.58A2.361 2.361 0 0 0 9.5 4.448a.345.345 0 0 0 0 .135c.08.476.248.933.495 1.35A22.625 22.625 0 0 0 12 9s2.492-3.194 2.492-4.553c0-.649-.262-1.271-.73-1.73A2.515 2.515 0 0 0 12.001 2Zm0 3.671a1.263 1.263 0 0 1-.694-.202 1.23 1.23 0 0 1-.463-.547 1.203 1.203 0 0 1 .264-1.337 1.267 1.267 0 0 1 1.359-.27c.228.093.423.25.56.452a1.208 1.208 0 0 1 .12 1.148 1.212 1.212 0 0 1-.67.663c-.151.061-.313.093-.476.093Z"/><path fill="#FBB03B" d="M9.751 7.779a.472.472 0 0 0 .13.315l.146.117c-.092-.144-.184-.28-.276-.432Zm-3.797 2.853a.554.554 0 0 0 .46-.198.886.886 0 0 0 .156-.567v-3.6h1.058v3.6c.002.31-.068.618-.203.9-.128.253-.334.46-.588.594-.285.141-.6.212-.92.207a1.983 1.983 0 0 1-.919-.19 1.497 1.497 0 0 1-.607-.53l.828-.558a.915.915 0 0 0 .708.342m3.025-7.605-6.031.027a.93.93 0 0 0-.65.264.89.89 0 0 0-.27.636v8.1a.883.883 0 0 0 .253.665.92.92 0 0 0 .667.28h10.113a.936.936 0 0 0 .697-.263.9.9 0 0 0 .268-.682v-4.14a17.109 17.109 0 0 1-1.36 1.89l-.065.09v.08c.013.317-.07.63-.24.9-.172.25-.42.442-.707.55a2.921 2.921 0 0 1-1.113.189 3.51 3.51 0 0 1-.753-.081 2.994 2.994 0 0 1-.7-.216 2.49 2.49 0 0 1-.578-.36l.469-.82c.217.17.463.3.726.388.27.09.552.135.836.135.268.014.535-.042.773-.162.099-.057.179-.142.23-.243l-.332-.45-.294-.378-.275-.054h-.12a5.13 5.13 0 0 1-.92-.207 1.321 1.321 0 0 1-.588-.441 1.4 1.4 0 0 1-.248-.9 1.567 1.567 0 0 1 .23-.9 1.4 1.4 0 0 1 .175-.216s0-.09-.074-.126a5.19 5.19 0 0 1-.552-1.593 1.34 1.34 0 0 1 0-.297c.001-.594.16-1.177.46-1.692"/></svg>
